X:151
T:Silk City
C:Barry Mitterhoff
N:TablEdited by Larry Tanner
L:1/8
Q:1/4=190
M:4/4
K:C
z6 (3cBA | "Am"E2 ed cB AG | "Bm7(b5)"F2 G2 "E7"E2 ^G2 | "Am"A2 (3cBA ed cB | 
"Bm7"A2 Bc "Bb7"df ed | (3"Am"cBA Ae dc BA | "D"^Fe d2 "Dm"=Fd ^c2 | "A"E^c B2 "B7"^D=c B2 | 
"Bm"DE ^FA "E7"Bd (3cBA | "Am"E2 ed cB AG | "Bm7(b5)"F2 G2 "E7"E2 ^G2 | "Am"A2 (3cBA ed cB | 
"Bm7"A2 Bc "Bb7"df ed | (3"Am"cBA Ae dc BA | "D"^Fe dA "Dm"=Fd ^cA | "A"E^c BA "B7"^D=c BA | 
"Bm"DE ^FA "E7"Bd ^cB | "A"AB ^cd ec BA | (3"Bm"e^fe fa "G#7"^gf ed | "C#m"^c2 e2 "F#m"^fe dc | 
"Bm"B^c d^f "E7"ed cB | "A"AB ^cd ec BA | (3"Bm"e^fe fa "G#7"^gf ed | "C#m"^c2 e2 ^fe dc | 
"F#m"A^G ^F4 (3FGA | "Bm"BA B^c de ^fa | "Bm7(b5)"^ge ef "E7"ed (3cBA | "Am"E2 ed cB AG | 
"Bm7(b5)"F2 G2 "E7"E2 ^G2 | "Am"A2 (3cBA ed cB | "Bm"A2 Bc "Bb7"df ed | (3"Am"cBA Ae "C7"dc BA/^G/ | 
AD ^FA "Bb7"^GD =FG | "Eb"GD EG "Ab7"^FD ^DF | "Db"FG A_B "G7"cf ed | "C"c2 gf ed c_B | 
"Fm"A2 gf "Bb7"ze dc | "C"_B2 fe zd cB | "Dm"A_B ce "G7"d2 (3edc | "C"A2 gf ed c_B | 
"Fm"A2 gf "Bb7"ze dc | "Eb"_B2 fe "Cm"zd cB | "Bm"Bc df "E7"ef ^f^g | "Am"a8 | 


